logos/nats.svg

<?xml version="1.0" encoding="UTF-8"?>
<svg width="512px" height="125px" viewBox="0 0 512 125" version="1.1" xmlns="http://www.w3.org/2000/svg" xmlns:xlink="http://www.w3.org/1999/xlink" preserveAspectRatio="xMidYMid">
    <title>Nats</title>
    <g>
				<polygon fill="#27AAE1" points="1.73360915e-14 97.5935192 51.4805814 97.5935192 81.0026209 124.919705 81.0026209 97.5935192 120.406004 97.5935192 120.406004 0 1.73360915e-14 0"></polygon>
				<polygon fill="#34A574" points="130.531332 97.5935192 250.937336 97.5935192 250.937336 0 130.531332 0"></polygon>
				<polygon fill="#375C93" points="261.062664 97.5935192 381.468668 97.5935192 381.468668 0 261.062664 0"></polygon>
				<polygon fill="#8DC63F" points="391.593996 6.50103432e-15 391.593996 97.5935192 512 97.5935192 512 0"></polygon>
				<path d="M451.126042,21.8365499 C464.179176,21.8365499 477.476293,23.9104122 484.429831,26.7162259 L484.429831,26.7162259 L484.429831,38.9154158 C476.500357,35.4996426 462.715273,33.0598046 451.248034,33.0598046 C438.560877,33.0598046 433.071241,33.9137479 431.485347,35.4996426 C430.875387,36.1096021 430.509411,36.8415535 430.509411,37.8174887 C430.509411,38.9154158 430.753395,39.6473672 431.363355,40.2573267 C432.949249,41.8432213 438.804861,42.3311889 452.467953,42.5751727 C472.474625,43.0631403 481.13605,44.7710269 485.527758,49.0407434 C487.723612,51.2365976 488.943531,54.6523707 488.943531,58.4341196 C488.943531,62.4598523 488.089588,66.363593 485.161782,69.2913986 C481.258041,73.1951394 472.718609,76.2449369 452.467953,76.2449369 C437.46295,76.2449369 423.067906,73.9270908 415.01644,70.5113176 L415.01644,70.5113176 L415.01644,58.1901358 C422.823922,61.7279009 439.536812,64.8996903 452.467953,64.8996903 C463.691208,64.8996903 471.620681,64.5337146 473.816536,62.3378604 C474.548487,61.4839171 474.670479,60.7519657 474.670479,59.8980224 C474.670479,58.9220872 474.426495,58.3121277 473.816536,57.7021682 C473.74334,57.6289731 473.66751,57.5570954 473.585725,57.4865353 L473.501832,57.4164144 C472.181259,56.3479605 469.200362,55.5892685 452.589945,55.1403383 C433.437217,54.6523707 424.043841,52.7005004 419.652132,48.308792 C417.700262,46.2349297 416.480343,42.9411484 416.480343,39.1593996 C416.480343,35.1336669 417.212294,31.5959018 420.506076,28.3021206 C424.775792,24.0324041 433.437217,21.8365499 451.126042,21.8365499 Z M199.700739,22.5685013 L237.274244,75.1470098 L220.073386,75.1470098 L212.997856,65.0216822 L166.518942,65.0216822 L159.443412,75.2690017 L142.974506,75.2690017 L180.54801,22.5685013 L199.700739,22.5685013 Z M41.9652132,22.8124851 L85.3943293,63.3137956 L85.3943293,22.8124851 L99.7893734,22.8124851 L99.7893734,75.1470098 L77.9528234,75.1470098 L33.791756,33.9137479 L33.791756,75.1470098 L19.3967119,75.1470098 L19.3967119,22.8124851 L41.9652132,22.8124851 Z M361.340005,22.8124851 L361.340005,34.6456993 L328.158208,34.6456993 L328.158208,75.1470098 L313.275197,75.1470098 L313.275197,34.6456993 L279.971408,34.6456993 L279.971408,22.8124851 L361.340005,22.8124851 Z M189.697403,31.8398856 L174.08244,54.1644031 L205.312366,54.1644031 L189.697403,31.8398856 Z" fill="#FFFFFF"></path>
    </g>
</svg>

<svg preserveAspectRatio="xMidYMid" viewBox="0 0 512 125" xmlns="http://www.w3.org/2000/svg">
  <path fill="#27AAE1" d="M0 97.594h51.48l29.523 27.326V97.594h39.403V0H0z"/>
  <path fill="#34A574" d="M130.531 97.594h120.406V0H130.531z"/>
  <path fill="#375C93" d="M261.063 97.594h120.406V0H261.063z"/>
  <path fill="#8DC63F" d="M391.594 0v97.594H512V0z"/>
  <path fill="#FFF" d="M451.126 21.837c13.053 0 26.35 2.073 33.304 4.88v12.198c-7.93-3.415-21.715-5.855-33.182-5.855-12.687 0-18.177.854-19.763 2.44-.61.61-.976 1.342-.976 2.317 0 1.098.244 1.83.854 2.44 1.586 1.586 7.442 2.074 21.105 2.318 20.007.488 28.668 2.196 33.06 6.466 2.196 2.196 3.416 5.611 3.416 9.393 0 4.026-.854 7.93-3.782 10.857-3.904 3.904-12.443 6.954-32.694 6.954-15.005 0-29.4-2.318-37.452-5.734v-12.32c7.808 3.537 24.52 6.709 37.452 6.709 11.223 0 19.153-.366 21.349-2.562.731-.854.853-1.586.853-2.44 0-.976-.244-1.586-.853-2.196a4.27 4.27 0 0 0-.231-.215l-.084-.07c-1.32-1.069-4.302-1.828-20.912-2.277-19.153-.488-28.546-2.44-32.938-6.831-1.952-2.074-3.172-5.368-3.172-9.15 0-4.025.732-7.563 4.026-10.857 4.27-4.27 12.931-6.465 30.62-6.465Zm-251.425.732 37.573 52.578h-17.2l-7.076-10.125h-46.48l-7.075 10.247h-16.468l37.573-52.7h19.153Zm-157.736.243 43.43 40.502V22.812h14.394v52.335H77.953L33.792 33.914v41.233H19.397V22.812h22.568Zm319.375 0v11.834h-33.182v40.501h-14.883V34.646h-33.304V22.812h81.369ZM189.697 31.84l-15.615 22.324h31.23L189.697 31.84Z"/>
</svg>
